X: 1
T: Whistler At The Wake
R: jig
M: 6/8
L: 1/8
K: Dmaj
|:A|F2A AFA|Bdd efg|fed ~B3|AFE EDE|
F2A AFA|Bdd efg|fed ~B3|AFD D2:|
|:e|fed BdB|AFE EDF|AFB AFB|AFB AFA|
fed BdB|AFE E2e|fed BdB|AFD D2:|


Tune 4236	Setting 16976

